X:1
T:Verbum caro factum est 3v
T:Orlando di Lasso
T:Source : Magnum opus musicum---München---N.Henricus---1604. Editor : André Vierendeels (12/04/15).
T:Notes : Original clefs : C1, C1, C1 Editorial accidentals above the staff Original note values have been halved Music collected by Ferdinando and Rodolpho di Lasso 
T:Verbum caro 3v
C:Orlando di Lasso
%%score [ 1 2 3 ]
L:1/8
Q:1/4=80
M:2/2
K:F
V:1 treble nm="Superius 1" snm="S 1"
V:2 treble nm="Superius 2" snm="S 2"
V:3 treble nm="Superius 3" snm="S 3"
V:1
 z8 | d6 e2 | f4 c2 _e2- | ed dc/B/ c2 c2 | d2 G2 d3 d | f2 f2 f3 e | dc BA G3 G | ^F4 d4 | %8
w: |Ver- bum|ca- ro, pa-|* * * * * * nem|ve- rum, ver- bo|car- nem ef- *|* * * * * fi-|cit, fit-|
 e2 f3 d g2 | c2 f4 ed | e2 f2 e4 | d4 d3 d | d2 G2 =B2 c2 | d4 z2 f2 | e2 e4 A2 | B2 c2 d2 G2 | %16
w: que san- * *|guis Chri- * *|* sti me-|rum et si|sen- sus de- fi-|cit, ad|fir- man- dum|cor sin- ce- rum,|
 z4 c4 | d4 c2 A2 | d3 e fe ed/c/ | dB c3 B BA/G/ | A2 A2 dc BA | G2 g3 f _ed | _e3 e d4- | %23
w: so-|la fi- des|suf- * * * * * *||* fi- cit, _ _ _|_ suf- * * *|* fi- cit.|
 !fermata!d8 |] %24
w: _|
V:2
 z4 z2 G2- | G2 A2 B4 | A2 A2 A2 c2- | cB B3 A/G/ A2 | Bc de f4 | d3 d c2 d2 | G3 A B2 c2 | %7
w: Ver-|* bum ca-|ro, pa- nem ve-||rum, _ _ _ _|ver- bo car- nem|ef- * * fi-|
 A4 z2 G2- | G2 A2 B4 | A4 d4 |"^-natural" ^c2 d3 c/B/ c2 |"^b" d2 B4 A2 | B2 d2 d2 c2 | %13
w: cit, fit-|* que san-|guis Chri-|sti me- * * *|rum et si|sen- sus de- fi-|
 =B4 z2 d2 | ^c2 c4 d2 | d2 f4 d2- | dc B3 A/G/ A2 | B2 G2 A2 c2- | c2 B2 c3 B/A/ | BG A3 G G2- | %20
w: cit, ad|fir- man- dum|cor sin- ce-||rum, so- la fi-|* des suf- * *||
 G2 ^F2 G2 g2- | gf _ed ed c=B | cG c4 =B2 | !fermata!=B8 |] %24
w: * fi- cit, suf-||* * * fi-|cit.|
V:3
 G4 A2 B2- | BA/G/ F2 G4 | D3 E F2 C2 | G4 F4 | z2 B4 B2 | B4 A2 B2- | BA GF _E3 E | D4 z4 | %8
w: Ver- bum ca-|* * * * ro,|pa- * * nem|ve- rum,|ver- bo|car- nem ef-|* * * * * fi-|cit,|
 z2 D4 E2 | F2 D2 B4 | A4 A4 | B2 G4 ^F2 | G2 B2 G2 A2 | G4 D4 | A2 A4 ^F2 | G2 A2 B3 A | G4 F4 | %17
w: fit- que|san- guis Chri-|sti me-|rum et si|sen- sus de- fi-|cit, ad|fir- man- dum|cor sin- ce- *|* rum,|
 z8 | G4 A4 | G2 F2 C2 _E2 | D2 dc BA GF | _ED C=B, C4- | C2 C2 G4- | !fermata!G8 |] %24
w: |so- la|fi- des suf fi-|cit, suf- * * * * *||* fi- cit.|_|

